src/com/lilithsthrone/res/combat/specialAttackIcon.svg

<?xml version="1.0" encoding="UTF-8" standalone="no"?>
<!-- Created with Inkscape (http://www.inkscape.org/) -->

<svg
   xmlns:dc="http://purl.org/dc/elements/1.1/"
   xmlns:cc="http://creativecommons.org/ns#"
   xmlns:rdf="http://www.w3.org/1999/02/22-rdf-syntax-ns#"
   xmlns:svg="http://www.w3.org/2000/svg"
   xmlns="http://www.w3.org/2000/svg"
   xmlns:sodipodi="http://sodipodi.sourceforge.net/DTD/sodipodi-0.dtd"
   xmlns:inkscape="http://www.inkscape.org/namespaces/inkscape"
   viewBox="0 0 256 256"
   id="svg2"
   version="1.1"
   inkscape:version="0.91 r13725"
   sodipodi:docname="specialAttackIcon.svg">
  <defs
     id="defs4">
    <inkscape:path-effect
       effect="powerstroke"
       id="path-effect4154"
       is_visible="true"
       offset_points="0,0.5"
       sort_points="true"
       interpolator_type="CubicBezierJohan"
       interpolator_beta="0.2"
       start_linecap_type="zerowidth"
       linejoin_type="round"
       miter_limit="4"
       end_linecap_type="zerowidth"
       cusp_linecap_type="round" />
    <inkscape:path-effect
       effect="powerstroke"
       id="path-effect4150"
       is_visible="true"
       offset_points="0,0.5"
       sort_points="true"
       interpolator_type="CubicBezierJohan"
       interpolator_beta="0.2"
       start_linecap_type="zerowidth"
       linejoin_type="round"
       miter_limit="4"
       end_linecap_type="zerowidth"
       cusp_linecap_type="round" />
    <inkscape:path-effect
       effect="powerstroke"
       id="path-effect4146"
       is_visible="true"
       offset_points="0.34598408,6.7401315"
       sort_points="true"
       interpolator_type="Linear"
       interpolator_beta="0.2"
       start_linecap_type="zerowidth"
       linejoin_type="round"
       miter_limit="4"
       end_linecap_type="zerowidth"
       cusp_linecap_type="round" />
    <inkscape:path-effect
       effect="powerstroke"
       id="path-effect4146-2"
       is_visible="true"
       offset_points="0.34598408,6.7401315"
       sort_points="true"
       interpolator_type="Linear"
       interpolator_beta="0.2"
       start_linecap_type="zerowidth"
       linejoin_type="round"
       miter_limit="4"
       end_linecap_type="zerowidth"
       cusp_linecap_type="round" />
    <inkscape:path-effect
       effect="powerstroke"
       id="path-effect4146-2-7"
       is_visible="true"
       offset_points="0.34983355,5.1754019"
       sort_points="true"
       interpolator_type="Linear"
       interpolator_beta="0.2"
       start_linecap_type="zerowidth"
       linejoin_type="round"
       miter_limit="4"
       end_linecap_type="zerowidth"
       cusp_linecap_type="round" />
    <inkscape:path-effect
       effect="powerstroke"
       id="path-effect4146-2-4"
       is_visible="true"
       offset_points="0.34598408,6.7401315"
       sort_points="true"
       interpolator_type="Linear"
       interpolator_beta="0.2"
       start_linecap_type="zerowidth"
       linejoin_type="round"
       miter_limit="4"
       end_linecap_type="zerowidth"
       cusp_linecap_type="round" />
    <inkscape:path-effect
       effect="powerstroke"
       id="path-effect4146-2-4-1"
       is_visible="true"
       offset_points="0.25601354,12.9606"
       sort_points="true"
       interpolator_type="Linear"
       interpolator_beta="0.2"
       start_linecap_type="zerowidth"
       linejoin_type="round"
       miter_limit="4"
       end_linecap_type="zerowidth"
       cusp_linecap_type="round" />
    <inkscape:path-effect
       effect="powerstroke"
       id="path-effect4146-2-4-1-0"
       is_visible="true"
       offset_points="0.25601354,12.9606"
       sort_points="true"
       interpolator_type="Linear"
       interpolator_beta="0.2"
       start_linecap_type="zerowidth"
       linejoin_type="round"
       miter_limit="4"
       end_linecap_type="zerowidth"
       cusp_linecap_type="round" />
    <inkscape:path-effect
       effect="powerstroke"
       id="path-effect4146-2-4-1-1"
       is_visible="true"
       offset_points="0.24778369,16.361328"
       sort_points="true"
       interpolator_type="Linear"
       interpolator_beta="0.2"
       start_linecap_type="zerowidth"
       linejoin_type="round"
       miter_limit="4"
       end_linecap_type="zerowidth"
       cusp_linecap_type="round" />
  </defs>
  <sodipodi:namedview
     id="base"
     pagecolor="#ffffff"
     bordercolor="#666666"
     borderopacity="1.0"
     inkscape:pageopacity="0.0"
     inkscape:pageshadow="2"
     inkscape:zoom="1.4"
     inkscape:cx="263.54314"
     inkscape:cy="169.39131"
     inkscape:document-units="px"
     inkscape:current-layer="layer2"
     showgrid="false"
     units="px"
     inkscape:window-width="2560"
     inkscape:window-height="1388"
     inkscape:window-x="-8"
     inkscape:window-y="-8"
     inkscape:window-maximized="1" />
  <metadata
     id="metadata7">
    <rdf:RDF>
      <cc:Work
         rdf:about="">
        <dc:format>image/svg+xml</dc:format>
        <dc:type
           rdf:resource="http://purl.org/dc/dcmitype/StillImage" />
        <dc:title />
      </cc:Work>
    </rdf:RDF>
  </metadata>
  <g
     inkscape:groupmode="layer"
     id="layer2"
     inkscape:label="Layer 2"
     style="display:inline">
    <path
       style="display:inline;fill:#ff2a2a;fill-rule:evenodd;stroke:#000000;stroke-width:2;stroke-linecap:butt;stroke-linejoin:miter;stroke-opacity:1;stroke-miterlimit:4;stroke-dasharray:none"
       d="M 188.21379,247.4435 C 183.23693,222.74935 174.07911,198.24912 162.26517,174.63396 138.38691,145.46916 110.44566,120.38462 83.762253,100.59164 57.048227,80.775948 31.347003,66.080042 11.967981,57.939762 29.258084,69.858965 52.05642,87.884131 75.332657,110.46411 c 23.31169,22.61437 46.957893,49.6536 65.948683,79.41205 17.66036,16.93998 33.98525,36.21064 46.93245,57.56734 z"
       id="path4144-8-3-0"
       inkscape:path-effect="#path-effect4146-2-4-1"
       inkscape:original-d="M 188.21379,247.4435 C 153.13141,157.50937 61.281354,84.919139 11.967981,57.939762"
       inkscape:connector-curvature="0"
       sodipodi:nodetypes="cc" />
    <path
       style="display:inline;fill:#ff2a2a;fill-rule:evenodd;stroke:#000000;stroke-width:2;stroke-linecap:butt;stroke-linejoin:miter;stroke-opacity:1;stroke-miterlimit:4;stroke-dasharray:none"
       d="m 250.16258,192.99562 c -2.7065,-27.77927 -10.64824,-53.93913 -22.2899,-78.47835 C 204.18606,83.939841 175.04398,60.20913 147.5037,42.24824 119.89187,24.240695 93.223236,11.601677 73.916774,3.4918772 91.333032,15.498047 115.33014,31.612287 139.77188,52.649144 c 24.47447,21.065038 48.64594,46.444747 66.78369,76.605246 17.1283,17.287 32.5739,38.29753 43.60701,63.74123 z"
       id="path4144-8-3-0-6"
       inkscape:path-effect="#path-effect4146-2-4-1-0"
       inkscape:original-d="M 250.16258,192.99562 C 223.29449,89.132919 123.23015,30.471254 73.916774,3.4918772"
       inkscape:connector-curvature="0"
       sodipodi:nodetypes="cc" />
    <path
       style="display:inline;fill:#ff2a2a;fill-rule:evenodd;stroke:#000000;stroke-width:2;stroke-linecap:butt;stroke-linejoin:miter;stroke-opacity:1;stroke-miterlimit:4;stroke-dasharray:none"
       d="M 243.73401,248.7099 C 242.49907,223.14694 232.24494,194.45513 216.74611,165.37583 195.27703,140.50468 169.48437,116.64408 143.39902,95.384805 117.52401,74.296965 91.013751,55.485529 67.773582,40.728848 44.50132,25.951788 24.252765,15.073125 11.059632,9.920448 c 11.433383,8.31681 29.388588,22.071383 50.249196,39.57559 20.93022,17.56262 44.587932,38.725632 67.455472,61.979872 23.06059,23.45055 45.00453,48.71283 62.06743,73.84786 22.14054,19.91482 41.4126,41.51232 52.90228,63.38613 z"
       id="path4144-8-3-0-7"
       inkscape:path-effect="#path-effect4146-2-4-1-1"
       inkscape:original-d="M 243.73401,248.7099 C 217.5802,152.70434 60.373009,36.899826 11.059632,9.920448"
       inkscape:connector-curvature="0"
       sodipodi:nodetypes="cc" />
  </g>
</svg>

<svg xmlns="http://www.w3.org/2000/svg" viewBox="0 0 256 256">
    <g fill="#ff2a2a" fill-rule="evenodd" stroke="#000" stroke-width="2">
        <path d="M188.214 247.444c-4.977-24.695-14.135-49.195-25.949-72.81-23.878-29.165-51.82-54.25-78.503-74.042C57.048 80.776 31.347 66.08 11.968 57.94c17.29 11.919 40.088 29.944 63.365 52.524 23.311 22.614 46.958 49.654 65.948 79.412 17.66 16.94 33.986 36.21 46.933 57.567zM250.163 192.996c-2.707-27.78-10.649-53.94-22.29-78.479-23.687-30.577-52.829-54.308-80.37-72.269-27.611-18.007-54.28-30.646-73.586-38.756 17.416 12.006 41.413 28.12 65.855 49.157 24.474 21.065 48.646 46.445 66.784 76.605 17.128 17.287 32.573 38.298 43.607 63.742zM243.734 248.71c-1.235-25.563-11.49-54.255-26.988-83.334-21.469-24.871-47.262-48.732-73.347-69.991-25.875-21.088-52.385-39.9-75.625-54.656C44.5 25.952 24.253 15.073 11.06 9.92c11.433 8.317 29.388 22.072 50.249 39.576 20.93 17.563 44.588 38.726 67.455 61.98 23.06 23.45 45.005 48.713 62.068 73.848 22.14 19.915 41.412 41.512 52.902 63.386z"/>
    </g>
</svg>
